src/icons/service-newrelic.svg

<svg enable-background="new 0 0 14 11" viewBox="0 0 14 11" xmlns="http://www.w3.org/2000/svg"><g><path d="m13.9 4c-.7-2.9-4.3-4.6-8.1-3.9s-6.4 3.9-5.7 6.8 4.3 4.6 8.1 3.9 6.4-3.9 5.7-6.8zm-6.9 4.2c-1.5 0-2.8-1.3-2.8-2.7s1.3-2.7 2.8-2.7 2.8 1.2 2.8 2.7c0 1.4-1.3 2.7-2.8 2.7z" fill="#008c99"/><path d="m7.5 1c-2.5 0-4.5 1.8-4.5 4s2 4 4.5 4 4.5-1.8 4.5-4-2-4-4.5-4zm-.7 6.3c-1.5 0-2.7-1.1-2.7-2.4s1.2-2.4 2.7-2.4 2.7 1.1 2.7 2.4-1.2 2.4-2.7 2.4z" fill="#70ccd3"/></g></svg>

<?xml version="1.0" encoding="utf-8"?>
<!-- Generator: Adobe Illustrator 20.1.0, SVG Export Plug-In . SVG Version: 6.00 Build 0)  -->
<svg version="1.1" id="Layer_1" xmlns="http://www.w3.org/2000/svg" xmlns:xlink="http://www.w3.org/1999/xlink" x="0px" y="0px"
	 viewBox="0 0 14 11" style="enable-background:new 0 0 14 11;" xml:space="preserve">
<style type="text/css">
	.st0{fill:#008C99;}
	.st1{fill:#70CCD3;}
</style>
<title>HDL/Icon/Standard/Service/newrelic</title>
<desc>Created with Sketch.</desc>
<g id="Colors">
	<g id="Service-icons" transform="translate(-121.000000, -1255.000000)">
		<g id="New-Relic" transform="translate(101.000000, 1243.000000)">
			<g id="HDL_x2F_Icon_x2F_Standard_x2F_Service_x2F_newrelic" transform="translate(20.000000, 12.000000)">
				<g id="NewRelic">
					<path id="Shape" class="st0" d="M13.9,4c-0.7-2.9-4.3-4.6-8.1-3.9S-0.6,4,0.1,6.9s4.3,4.6,8.1,3.9S14.6,6.9,13.9,4z M7,8.2
						c-1.5,0-2.8-1.3-2.8-2.7S5.5,2.8,7,2.8S9.8,4,9.8,5.5l0,0C9.8,6.9,8.5,8.2,7,8.2z"/>
					<path id="Shape_1_" class="st1" d="M7.5,1C5,1,3,2.8,3,5s2,4,4.5,4S12,7.2,12,5S10,1,7.5,1L7.5,1z M6.8,7.3
						c-1.5,0-2.7-1.1-2.7-2.4s1.2-2.4,2.7-2.4s2.7,1.1,2.7,2.4S8.3,7.3,6.8,7.3L6.8,7.3z"/>
				</g>
			</g>
		</g>
	</g>
</g>
</svg>
